X:2102 
T:Cha nel eh liorish "duke" ny chairn
C:Tom Kermode, Bradda
O:Isle of Man
C:Traditional
Z:Clague collection
B:Kiaull Vannin #102 
L:1/4
M:4/4  
K:G 
e|e3/2f/ gf|ec B e/e/|fa gf|e3 e|cc/c/ BB|AF ED|Ee eB|A3||

